X:200
T: Der Holderstrauch (3-42), S. 111
N: K1175
O: Luxemburg
S: KINTZELE, Guillaume: An der Ucht, Bd. 3 Luxemburg 1928]
N: in der Quelle mit einer 2. Stimme versehen
R: Treue, Trennung]
M: 3/4
L: 1/16
K: F
C4 | A3GF6c2 | c3BA4c4 | B2A2G4F2G2 | A6z2
F4 | d3cB6d2 | c3BA4c4 | B3A2G3F2G2 | A6z2
F4 | d3cB6d2 | c3BA4c4 | B3AG4A2G2 | F6z2

@@@ Tune index: 8254
